kora/status/symbolic/orientation-portrait-right-symbolic.svg

<svg xmlns="http://www.w3.org/2000/svg" width="16" height="16" version="1.1">
 <path style="fill:#dfdfdf" d="M 11.894531,1 C 12.505433,0.99809284 13.001306,1.4983459 13,2.1152344 V 13.884766 C 13.001306,14.501654 12.505433,15.001907 11.894531,15 H 4.105469 C 3.494567,15.001907 2.998694,14.501654 3,13.884766 V 2.1152344 C 2.998694,1.4983458 3.494567,0.99809272 4.105469,1 Z M 7,4 v 8 l 4,-3.9902344 z"/>
</svg>

<svg xmlns="http://www.w3.org/2000/svg" style="clip-rule:evenodd;fill-rule:evenodd;stroke-linejoin:round;stroke-miterlimit:2" version="1.1" viewBox="0 0 16 16">
 <defs>
  <style id="current-color-scheme" type="text/css">
   .ColorScheme-Text { color:#dfdfdf; } .ColorScheme-Highlight { color:#4285f4; } .ColorScheme-NeutralText { color:#ff9800; } .ColorScheme-PositiveText { color:#4caf50; } .ColorScheme-NegativeText { color:#f44336; }
  </style>
 </defs>
 <path style="fill-rule:nonzero;fill:currentColor;" class="ColorScheme-Text" d="m11.895 1c0.61-2e-3 1.106 0.498 1.105 1.115v11.77c1e-3 0.617-0.495 1.117-1.105 1.115h-7.79c-0.61 2e-3 -1.106-0.498-1.105-1.115v-11.77c-1e-3 -0.617 0.495-1.117 1.105-1.115h7.79zm-4.895 3v8l4-3.99-4-4.01z"/>
</svg>
